src/images/svg/logo.svg

<svg width="187" height="27" viewBox="0 0 187 27" fill="none" xmlns="http://www.w3.org/2000/svg">
<g clip-path="url(#clip0_702_3117)">
<path fill-rule="evenodd" clip-rule="evenodd" d="M5.43305 23.4518C10.091 23.4518 10.9688 19.3274 10.9688 16.0252C11.522 16.0252 15.8942 16.0252 17.8884 16.0252C28.7361 16.0252 28.7388 0.569824 18.2344 0.569824C15.3773 0.569824 13.537 2.3141 13.0443 2.92173C7.18338 2.92173 6.471 6.00565 6.471 11.9937C6.471 13.1489 6.471 16.9042 6.471 17.4826C6.471 18.8906 5.90913 19.804 4.39476 19.804C3.10182 19.804 2.48943 18.6511 1.97288 17.0332C1.7037 17.1788 -0.186405 18.2083 -0.448662 18.3771C0.123249 19.9934 0.735638 23.4518 5.43305 23.4518ZM12.0185 9.64148C13.793 9.64148 13.9439 12.3294 11.8929 12.3294C10.164 12.3294 10.209 9.64148 12.0185 9.64148ZM18.2348 17.6962C16.7349 17.6962 12.3527 17.3692 12.3527 17.3692V25.6558L16.5045 25.7155L17.5425 19.7211L30.6898 19.4723L31.0361 26.0445L35.8799 26.1045C35.8799 26.1045 36.5715 13.2319 36.5715 10.6494C36.5715 5.85938 34.4434 3.14827 29.6519 2.92173C28.4513 2.86502 26.8805 2.63948 25.8461 2.58575C30.3553 8.11113 26.7674 17.6962 18.2348 17.6962ZM26.5384 21.0561L26.884 25.9251L29.6519 25.9851L29.3059 21.0561H26.5384ZM17.8884 25.7758L20.6563 25.8355L21.3479 21.0561H18.926L17.8884 25.7758Z" fill="#FF862F"/>
</g>
<path d="M54.7904 6.07762C55.7775 6.07762 56.8026 6.18758 57.8656 6.4075C58.9286 6.61276 59.9233 6.93532 60.8497 7.37516L59.574 11.0259C59.1792 10.8939 58.754 10.784 58.2984 10.696C57.858 10.5934 57.4176 10.5127 56.9772 10.4541C56.552 10.3954 56.1344 10.3588 55.7244 10.3441C55.3295 10.3148 54.9727 10.3001 54.6538 10.3001C54.2893 10.3001 54.0311 10.3588 53.8793 10.4761C53.7426 10.5787 53.6743 10.7326 53.6743 10.9379C53.6743 11.1432 53.9096 11.3191 54.3804 11.4657C54.8512 11.5977 55.451 11.7443 56.18 11.9056C56.514 11.9789 56.8785 12.0668 57.2733 12.1695C57.6834 12.2721 58.0934 12.4041 58.5034 12.5653C58.9134 12.7266 59.3159 12.9319 59.7107 13.1811C60.1055 13.4304 60.4548 13.7382 60.7585 14.1048C61.0774 14.4713 61.328 14.9038 61.5103 15.4023C61.6925 15.9008 61.7836 16.4799 61.7836 17.1397C61.7836 17.8141 61.6469 18.4446 61.3736 19.031C61.1154 19.6175 60.675 20.1307 60.0524 20.5705C59.4298 21.0103 58.6097 21.3622 57.5923 21.6261C56.5748 21.8754 55.3144 22 53.8109 22C53.4161 22 52.9453 21.978 52.3986 21.934C51.8671 21.89 51.2901 21.8167 50.6674 21.7141C50.06 21.6115 49.4374 21.4795 48.7995 21.3182C48.1617 21.157 47.5619 20.9517 47 20.7025L48.1845 16.8978C48.8983 17.1177 49.5816 17.2937 50.2346 17.4256C50.9028 17.5429 51.5103 17.6309 52.0569 17.6895C52.6188 17.7482 53.1048 17.7848 53.5148 17.7995C53.9248 17.8141 54.2361 17.8215 54.4487 17.8215C54.9347 17.8215 55.2612 17.7555 55.4282 17.6235C55.6105 17.4916 55.7016 17.3303 55.7016 17.1397C55.7016 16.7732 55.2612 16.4946 54.3804 16.304C53.4692 16.0841 52.6036 15.8642 51.7836 15.6442C50.9636 15.4243 50.2422 15.1384 49.6196 14.7865C49.0121 14.4347 48.5262 13.9802 48.1617 13.423C47.7973 12.8659 47.615 12.1328 47.615 11.2238C47.615 10.5201 47.7289 9.86028 47.9567 9.2445C48.1997 8.61406 48.6021 8.06425 49.164 7.59508C49.7259 7.12592 50.4624 6.75938 51.3736 6.49547C52.2999 6.2169 53.4389 6.07762 54.7904 6.07762Z" fill="#A65CF0"/>
<path d="M63.9038 21.6921C63.919 19.8594 63.919 18.0341 63.9038 16.216C63.8886 14.398 63.8886 12.5727 63.9038 10.74H69.4619C69.4467 12.5727 69.4467 14.398 69.4619 16.216C69.4771 18.0341 69.4771 19.8594 69.4619 21.6921H63.9038ZM69.6897 7.50712C69.6897 8.22553 69.4543 8.81932 68.9836 9.28849C68.5128 9.75766 67.7383 9.99224 66.6601 9.99224C66.1286 9.99224 65.673 9.93359 65.2934 9.8163C64.9137 9.68435 64.6024 9.50841 64.3594 9.28849C64.1316 9.06856 63.9646 8.80466 63.8583 8.49677C63.752 8.18887 63.6988 7.85899 63.6988 7.50712C63.6988 6.75938 63.9266 6.15826 64.3822 5.70375C64.8378 5.23458 65.5971 5 66.6601 5C67.7535 5 68.528 5.23458 68.9836 5.70375C69.4543 6.15826 69.6897 6.75938 69.6897 7.50712Z" fill="#A65CF0"/>
<path d="M78.0512 7.35317V10.74H81.1036V14.0388H78.0512V16.5239C78.0512 16.8611 78.074 17.1324 78.1196 17.3376C78.1803 17.5429 78.2638 17.6969 78.3701 17.7995C78.4916 17.9021 78.6435 17.9681 78.8257 17.9974C79.0079 18.0267 79.2281 18.0414 79.4863 18.0414C79.5926 18.0414 79.8052 18.0267 80.1241 17.9974C80.443 17.9681 80.7923 17.9241 81.1719 17.8655L81.7642 21.3182C81.4605 21.4355 81.134 21.5382 80.7847 21.6261C80.4506 21.6994 80.1089 21.7654 79.7596 21.8241C79.4256 21.8827 79.0915 21.9194 78.7574 21.934C78.4385 21.9633 78.1575 21.978 77.9145 21.978C76.6693 21.978 75.6898 21.8387 74.976 21.5602C74.2623 21.2816 73.7232 20.937 73.3587 20.5265C73.0095 20.1013 72.7893 19.6468 72.6981 19.163C72.607 18.6792 72.5615 18.232 72.5615 17.8215V14.0388H71.0581V11.1138L72.9715 10.564C73.1689 10.0802 73.3663 9.58905 73.5637 9.09056C73.7612 8.59207 73.951 8.10091 74.1332 7.61708L78.0512 7.35317Z" fill="#A65CF0"/>
<path d="M83.3217 21.6921V6.45149H90.5427C92.122 6.45149 93.4204 6.65675 94.4379 7.06727C95.4705 7.46313 96.283 8.00561 96.8752 8.6947C97.4675 9.38379 97.8775 10.1902 98.1053 11.1138C98.3483 12.0375 98.4698 13.0125 98.4698 14.0388C98.4698 15.0358 98.3331 15.9961 98.0598 16.9198C97.7864 17.8435 97.3384 18.6572 96.7158 19.3609C96.0932 20.0647 95.2731 20.6292 94.2557 21.0543C93.2534 21.4795 92.0157 21.6921 90.5427 21.6921H83.3217ZM89.062 10.1462V17.9534H90.1327C90.6186 17.9534 91.0134 17.8508 91.3172 17.6455C91.6361 17.4256 91.879 17.1397 92.0461 16.7878C92.2283 16.4213 92.3498 16.0035 92.4106 15.5343C92.4865 15.0651 92.5245 14.574 92.5245 14.0608C92.5245 13.533 92.4865 13.0345 92.4106 12.5653C92.3346 12.0815 92.198 11.6636 92.0005 11.3118C91.8183 10.9599 91.5601 10.6813 91.226 10.4761C90.892 10.2561 90.4667 10.1462 89.9504 10.1462H89.062Z" fill="#A65CF0"/>
<path d="M113.724 16.194C113.724 17.0444 113.595 17.8215 113.336 18.5252C113.078 19.229 112.668 19.8374 112.106 20.3506C111.56 20.8491 110.854 21.2376 109.988 21.5162C109.122 21.7947 108.075 21.934 106.844 21.934C105.599 21.934 104.544 21.7947 103.678 21.5162C102.813 21.2376 102.106 20.8491 101.56 20.3506C101.013 19.8374 100.611 19.229 100.352 18.5252C100.109 17.8215 99.988 17.0444 99.988 16.194C99.988 15.3583 100.109 14.5886 100.352 13.8849C100.611 13.1811 101.013 12.58 101.56 12.0815C102.122 11.583 102.835 11.1945 103.701 10.9159C104.567 10.6373 105.614 10.4981 106.844 10.4981C108.075 10.4981 109.122 10.6373 109.988 10.9159C110.869 11.1945 111.583 11.583 112.129 12.0815C112.676 12.58 113.078 13.1811 113.336 13.8849C113.595 14.5886 113.724 15.3583 113.724 16.194ZM108.029 16.194C108.029 15.4756 107.945 14.9552 107.778 14.6326C107.611 14.2954 107.3 14.1268 106.844 14.1268C106.389 14.1268 106.078 14.3174 105.911 14.6986C105.743 15.0798 105.66 15.5783 105.66 16.194C105.66 16.9711 105.743 17.5282 105.911 17.8655C106.078 18.2027 106.389 18.3713 106.844 18.3713C107.3 18.3713 107.611 18.2027 107.778 17.8655C107.945 17.5282 108.029 16.9711 108.029 16.194Z" fill="#A65CF0"/>
<path d="M129.475 17.9094L129.862 14.7646L130.591 10.762H135.921C135.511 12.6093 135.078 14.4347 134.623 16.238C134.182 18.0414 133.749 19.8594 133.324 21.6921H126.582L125.784 17.6675L125.397 14.6546H125.215L124.873 17.6455L124.121 21.6921H117.424C116.984 19.8594 116.528 18.0487 116.058 16.26C115.587 14.4713 115.139 12.6386 114.714 10.762H120.158L120.887 14.8525L121.274 17.9974H121.411L121.889 14.8305L122.755 10.762H127.994L128.837 14.7865L129.315 17.9094H129.475Z" fill="#A65CF0"/>
<path d="M142.787 11.9056C143.47 11.4071 144.176 11.0405 144.905 10.806C145.649 10.5714 146.295 10.4541 146.841 10.4541C148.238 10.4541 149.233 10.806 149.825 11.5097C150.418 12.1988 150.714 13.2251 150.714 14.5886V21.6921H145.133V15.6223C145.133 15.1971 145.049 14.9038 144.882 14.7426C144.73 14.5813 144.48 14.5006 144.131 14.5006C143.994 14.5006 143.819 14.53 143.607 14.5886C143.394 14.6473 143.181 14.7499 142.969 14.8965V21.6921H137.365C137.38 19.8594 137.38 18.0341 137.365 16.216C137.35 14.3834 137.35 12.5507 137.365 10.718H142.513L142.627 11.8396L142.787 11.9056Z" fill="#A65CF0"/>
<path d="M166.48 11.4877C166.48 12.1768 166.351 12.8292 166.093 13.445C165.85 14.0461 165.478 14.574 164.977 15.0285C164.476 15.483 163.861 15.8422 163.132 16.1061C162.403 16.37 161.56 16.5019 160.603 16.5019H158.644V21.6921H152.904V6.45149H160.239C161.423 6.45149 162.418 6.58344 163.223 6.84735C164.028 7.11126 164.666 7.47046 165.136 7.92497C165.622 8.37947 165.964 8.91462 166.161 9.5304C166.374 10.1462 166.48 10.7986 166.48 11.4877ZM158.644 10.1462V12.9392H159.351C159.776 12.9392 160.102 12.8219 160.33 12.5873C160.573 12.3527 160.694 12.0229 160.694 11.5977C160.694 11.0405 160.558 10.6593 160.284 10.4541C160.011 10.2488 159.654 10.1462 159.214 10.1462H158.644Z" fill="#A65CF0"/>
<path d="M167.826 21.6921C167.841 19.0237 167.833 16.37 167.803 13.7309C167.788 11.0919 167.795 8.43812 167.826 5.76973H173.361C173.376 8.43812 173.384 11.0919 173.384 13.7309C173.384 16.37 173.384 19.0237 173.384 21.6921H167.826Z" fill="#A65CF0"/>
<path d="M181.282 10.4321C182.103 10.4321 182.945 10.5127 183.811 10.674C184.677 10.8206 185.497 11.0625 186.271 11.3997L185.314 14.4347C184.631 14.2147 183.97 14.0608 183.333 13.9728C182.695 13.8849 182.125 13.8409 181.624 13.8409C181.396 13.8409 181.237 13.8702 181.146 13.9288C181.055 13.9875 181.009 14.0828 181.009 14.2147C181.009 14.2881 181.138 14.3614 181.396 14.4347C181.655 14.4933 181.966 14.5593 182.33 14.6326C182.786 14.7059 183.287 14.8159 183.834 14.9625C184.38 15.0944 184.889 15.2997 185.36 15.5783C185.831 15.8568 186.218 16.2307 186.522 16.6999C186.841 17.1544 187 17.7408 187 18.4593C187 18.9431 186.894 19.3976 186.681 19.8228C186.468 20.248 186.104 20.6218 185.588 20.9444C185.087 21.2523 184.418 21.5015 183.583 21.6921C182.748 21.868 181.715 21.956 180.485 21.956C180.166 21.956 179.787 21.9414 179.346 21.912C178.921 21.8827 178.458 21.8314 177.957 21.7581C177.456 21.6848 176.939 21.5895 176.408 21.4722C175.891 21.3402 175.398 21.179 174.927 20.9884L175.838 17.8215C177.099 18.1734 178.086 18.3859 178.8 18.4593C179.513 18.5179 180.037 18.5472 180.371 18.5472C180.629 18.5472 180.842 18.5326 181.009 18.5032C181.176 18.4593 181.26 18.3786 181.26 18.2613C181.26 18.1587 181.214 18.0781 181.123 18.0194C181.032 17.9608 180.918 17.9168 180.781 17.8875C180.645 17.8435 180.493 17.8068 180.326 17.7775C180.174 17.7482 180.03 17.7188 179.893 17.6895C179.331 17.5576 178.777 17.4183 178.23 17.2717C177.699 17.1251 177.22 16.9271 176.795 16.6779C176.385 16.4286 176.051 16.1134 175.793 15.7322C175.535 15.3364 175.405 14.8232 175.405 14.1928C175.405 13.6796 175.504 13.1958 175.702 12.7413C175.899 12.2868 176.226 11.8909 176.681 11.5537C177.137 11.2018 177.737 10.9306 178.481 10.74C179.24 10.5347 180.174 10.4321 181.282 10.4321Z" fill="#A65CF0"/>
<defs>
<clipPath id="clip0_702_3117">
<rect width="37" height="27" fill="white" transform="matrix(-1 0 0 1 37 0)"/>
</clipPath>
</defs>
</svg>

<svg width="187" height="27" fill="none" xmlns="http://www.w3.org/2000/svg"><g clip-path="url(#clip0_702_3117)"><path fill-rule="evenodd" clip-rule="evenodd" d="M5.433 23.452c4.658 0 5.536-4.125 5.536-7.427h6.92c10.847 0 10.85-15.455.345-15.455-2.857 0-4.697 1.744-5.19 2.352-5.86 0-6.573 3.084-6.573 9.072v5.489c0 1.408-.562 2.321-2.076 2.321-1.293 0-1.906-1.153-2.422-2.77-.27.145-2.16 1.174-2.422 1.343.572 1.616 1.185 5.075 5.882 5.075zm6.585-13.81c1.775 0 1.926 2.687-.125 2.687-1.729 0-1.684-2.688.125-2.688zm6.217 8.054c-1.5 0-5.882-.327-5.882-.327v8.287l4.152.06 1.038-5.995 13.147-.249.346 6.572 4.844.06s.691-12.872.691-15.455c0-4.79-2.128-7.5-6.92-7.727-1.2-.057-2.77-.283-3.805-.336 4.51 5.525.921 15.11-7.611 15.11zm8.303 3.36l.346 4.87 2.768.06-.346-4.93h-2.768zm-8.65 4.72l2.768.06.692-4.78h-2.422l-1.038 4.72z" fill="#FF862F"/></g><path d="M54.79 6.078c.988 0 2.013.11 3.076.33 1.063.205 2.057.527 2.984.967l-1.276 3.65c-.395-.131-.82-.241-1.276-.329a13.902 13.902 0 00-2.574-.352 14.18 14.18 0 00-1.07-.044c-.365 0-.623.059-.775.176-.136.103-.205.257-.205.462 0 .205.236.381.706.528a35.25 35.25 0 001.8.44c.334.073.699.16 1.093.263.41.103.82.235 1.23.396a7.2 7.2 0 011.208.616c.395.25.744.557 1.047.924.32.366.57.799.752 1.297.183.499.274 1.078.274 1.738 0 .674-.137 1.305-.41 1.891-.259.587-.699 1.1-1.322 1.54-.622.44-1.442.791-2.46 1.055-1.017.25-2.278.374-3.781.374-.395 0-.866-.022-1.412-.066a21.735 21.735 0 01-1.732-.22 23.785 23.785 0 01-1.867-.396 11.199 11.199 0 01-1.8-.616l1.184-3.804c.714.22 1.398.396 2.05.528.669.117 1.276.205 1.823.264a22.527 22.527 0 002.392.131c.486 0 .812-.066.98-.198.181-.131.273-.293.273-.483 0-.367-.44-.645-1.322-.836-.91-.22-1.776-.44-2.596-.66a9.26 9.26 0 01-2.164-.857 4.262 4.262 0 01-1.458-1.364c-.365-.557-.547-1.29-.547-2.2 0-.703.114-1.363.342-1.979.243-.63.645-1.18 1.207-1.649.562-.47 1.298-.836 2.21-1.1.926-.278 2.065-.417 3.416-.417zm9.114 15.614c.015-1.833.015-3.658 0-5.476a328.805 328.805 0 010-5.476h5.558a328.805 328.805 0 000 5.476c.015 1.818.015 3.643 0 5.476h-5.558zM69.69 7.507c0 .719-.236 1.312-.706 1.781-.471.47-1.246.704-2.324.704-.531 0-.987-.058-1.367-.176a2.687 2.687 0 01-.934-.528 1.983 1.983 0 01-.5-.791 3.012 3.012 0 01-.16-.99c0-.748.228-1.349.683-1.803.456-.47 1.215-.704 2.278-.704 1.094 0 1.868.235 2.324.704.47.454.706 1.055.706 1.803zm8.361-.154v3.387h3.053v3.299H78.05v2.485c0 .337.023.608.069.814.06.205.144.359.25.461a.915.915 0 00.456.198c.182.03.402.044.66.044a8.3 8.3 0 00.638-.044c.319-.029.668-.073 1.048-.131l.592 3.452c-.303.117-.63.22-.98.308-.333.073-.675.14-1.024.198a7.753 7.753 0 01-1.003.11c-.319.03-.6.044-.843.044-1.245 0-2.224-.14-2.938-.418-.714-.278-1.253-.623-1.617-1.034-.35-.425-.57-.88-.66-1.363a7.285 7.285 0 01-.138-1.341v-3.783h-1.503v-2.925l1.913-.55a108.854 108.854 0 001.163-2.947l3.917-.264zm5.271 14.339V6.452h7.22c1.58 0 2.878.205 3.896.615 1.032.396 1.845.939 2.437 1.628a5.774 5.774 0 011.23 2.419c.243.923.365 1.898.365 2.925a10.1 10.1 0 01-.41 2.88 6.36 6.36 0 01-1.344 2.442c-.623.704-1.443 1.268-2.46 1.693-1.003.426-2.24.638-3.713.638h-7.221zm5.74-11.546v7.807h1.07c.487 0 .881-.102 1.185-.308.32-.22.562-.505.73-.857.181-.367.303-.785.364-1.254.076-.469.114-.96.114-1.473 0-.528-.038-1.027-.114-1.496a3.725 3.725 0 00-.41-1.253 2.09 2.09 0 00-.775-.836c-.334-.22-.76-.33-1.276-.33h-.888zm24.662 6.048c0 .85-.129 1.628-.388 2.331a4.57 4.57 0 01-1.23 1.826c-.546.498-1.252.887-2.118 1.165-.866.279-1.913.418-3.144.418-1.245 0-2.3-.14-3.166-.418-.865-.278-1.572-.667-2.118-1.165a4.69 4.69 0 01-1.208-1.826c-.243-.703-.364-1.48-.364-2.331 0-.836.121-1.605.364-2.31a4.509 4.509 0 011.208-1.803c.562-.498 1.275-.886 2.141-1.165.866-.279 1.913-.418 3.143-.418 1.231 0 2.278.14 3.144.418.881.278 1.595.667 2.141 1.165a4.5 4.5 0 011.207 1.804c.259.704.388 1.473.388 2.309zm-5.695 0c0-.718-.084-1.239-.251-1.561-.167-.338-.478-.506-.934-.506-.455 0-.766.19-.933.572-.168.38-.251.88-.251 1.495 0 .777.083 1.334.251 1.672.167.337.478.505.933.505.456 0 .767-.168.934-.505.167-.338.251-.895.251-1.672zm21.446 1.716l.387-3.145.729-4.003h5.33c-.41 1.847-.843 3.673-1.298 5.476a468.757 468.757 0 00-1.299 5.454h-6.742l-.798-4.024-.387-3.013h-.182l-.342 2.99-.752 4.047h-6.697a262.6 262.6 0 00-1.366-5.432 162.88 162.88 0 01-1.344-5.498h5.444l.729 4.09.387 3.145h.137l.478-3.166.866-4.069h5.239l.843 4.024.478 3.123h.16zm13.312-6.004a7.473 7.473 0 012.118-1.1c.744-.235 1.39-.352 1.936-.352 1.397 0 2.392.352 2.984 1.056.593.689.889 1.715.889 3.079v7.103h-5.581v-6.07c0-.425-.084-.718-.251-.88-.152-.16-.402-.241-.751-.241-.137 0-.312.029-.524.088a2.113 2.113 0 00-.638.307v6.796h-5.604a333.2 333.2 0 000-5.476 335.872 335.872 0 010-5.498h5.148l.114 1.122.16.066zm23.693-.418c0 .689-.129 1.341-.387 1.957a4.29 4.29 0 01-1.116 1.583c-.501.455-1.116.814-1.845 1.078-.729.264-1.572.396-2.529.396h-1.959v5.19h-5.74V6.452h7.335c1.184 0 2.179.131 2.984.395.805.264 1.443.623 1.913 1.078.486.454.828.99 1.025 1.605a5.95 5.95 0 01.319 1.958zm-7.836-1.342v2.793h.707c.425 0 .751-.117.979-.352.243-.234.364-.564.364-.99 0-.556-.136-.938-.41-1.143-.273-.205-.63-.308-1.07-.308h-.57zm9.182 11.546c.015-2.668.007-5.322-.023-7.961-.015-2.64-.008-5.293.023-7.961h5.535c.015 2.668.023 5.322.023 7.96v7.962h-5.558zm13.456-11.26c.821 0 1.663.08 2.529.242.866.147 1.686.389 2.46.726l-.957 3.035a11.691 11.691 0 00-1.981-.462 12.668 12.668 0 00-1.709-.132c-.228 0-.387.03-.478.088-.091.059-.137.154-.137.286 0 .073.129.146.387.22.259.058.57.124.934.198.456.073.957.183 1.504.33a5.53 5.53 0 011.526.615 3.49 3.49 0 011.162 1.122c.319.454.478 1.04.478 1.76 0 .483-.106.938-.319 1.363-.213.425-.577.799-1.093 1.121-.501.308-1.17.558-2.005.748-.835.176-1.868.264-3.098.264a17.446 17.446 0 01-2.528-.198 21.866 21.866 0 01-1.549-.286 11.573 11.573 0 01-1.481-.484l.911-3.166c1.261.351 2.248.564 2.962.637a21.38 21.38 0 001.571.088c.258 0 .471-.014.638-.044.167-.044.251-.124.251-.242a.274.274 0 00-.137-.242 1.024 1.024 0 00-.342-.131 3.384 3.384 0 00-.455-.11 21.77 21.77 0 01-.433-.088 54.717 54.717 0 01-1.663-.418 5.961 5.961 0 01-1.435-.594 3.197 3.197 0 01-1.002-.946c-.258-.396-.388-.909-.388-1.54 0-.512.099-.996.297-1.45.197-.455.524-.851.979-1.188.456-.352 1.056-.623 1.8-.814.759-.205 1.693-.308 2.801-.308z" fill="#A65CF0"/><defs><clipPath id="clip0_702_3117"><path fill="#fff" transform="matrix(-1 0 0 1 37 0)" d="M0 0h37v27H0z"/></clipPath></defs></svg>
